src/assets/img/index/icons/servers.svg

<svg width="140" height="140" viewBox="0 0 140 140" fill="none"
    xmlns="http://www.w3.org/2000/svg">
    <g filter="url(#filter0_d)">
        <circle cx="70" cy="66" r="50" fill="white"/>
    </g>
    <path d="M50.4368 50.9373C49.257 49.6263 48.6056 47.9242 48.6087 46.1605V46.1605C48.6087 44.2615 49.3631 42.4401 50.7059 41.0973C52.0488 39.7544 53.8701 39 55.7692 39H65.4225C67.3216 39 69.1429 39.7544 70.4858 41.0973C71.8286 42.4401 72.583 44.2615 72.583 46.1605V46.1605" stroke="#A29EC0" stroke-width="2" stroke-linecap="round" stroke-linejoin="round"/>
    <path d="M84.2306 53.3257H74.5773C72.6778 53.3245 70.8565 52.5691 69.5137 51.2255C68.171 49.8818 67.4167 48.06 67.4167 46.1605" stroke="#A29EC0" stroke-width="2" stroke-linecap="round" stroke-linejoin="round"/>
    <path d="M74.5774 39H84.2307C86.1298 39 87.9511 39.7544 89.294 41.0973C90.6368 42.4401 91.3912 44.2615 91.3912 46.1605V46.1605C91.3949 47.8203 90.8189 49.4292 89.7626 50.7094" stroke="#A29EC0" stroke-width="2" stroke-linecap="round" stroke-linejoin="round"/>
    <path d="M84.2308 48.7056C84.574 48.7205 84.9166 48.6657 85.238 48.5446C85.5595 48.4235 85.853 48.2386 86.1011 48.001C86.3492 47.7634 86.5466 47.4781 86.6814 47.1622C86.8163 46.8463 86.8858 46.5064 86.8858 46.1629C86.8858 45.8194 86.8163 45.4795 86.6814 45.1636C86.5466 44.8477 86.3492 44.5623 86.1011 44.3248C85.853 44.0872 85.5595 43.9023 85.238 43.7812C84.9166 43.6601 84.574 43.6053 84.2308 43.6202H77.8206" stroke="#A29EC0" stroke-width="2" stroke-linecap="round" stroke-linejoin="round"/>
    <path d="M55.2563 43.6202C54.9132 43.6053 54.5706 43.6601 54.2492 43.7812C53.9277 43.9023 53.6341 44.0872 53.386 44.3248C53.138 44.5623 52.9406 44.8477 52.8057 45.1636C52.6708 45.4795 52.6013 45.8194 52.6013 46.1629C52.6013 46.5064 52.6708 46.8463 52.8057 47.1622C52.9406 47.4781 53.138 47.7634 53.386 48.001C53.6341 48.2386 53.9277 48.4235 54.2492 48.5446C54.5706 48.6657 54.9132 48.7205 55.2563 48.7056H61.6761" stroke="#A29EC0" stroke-width="2" stroke-linecap="round" stroke-linejoin="round"/>
    <path d="M52.488 77.5565V85.9469" stroke="#A29EC0" stroke-width="2" stroke-linejoin="round"/>
    <path d="M55.4842 85.9468H49.4966V91.9344H55.4842V85.9468Z" stroke="#A29EC0" stroke-width="2" stroke-linejoin="round"/>
    <path d="M90.5033 85.9468H84.5156V91.9344H90.5033V85.9468Z" stroke="#A29EC0" stroke-width="2" stroke-linejoin="round"/>
    <path d="M49.4965 88.9384H40.147" stroke="#A29EC0" stroke-width="2" stroke-linecap="round" stroke-linejoin="round"/>
    <path d="M84.5157 88.9384H55.4844" stroke="#A29EC0" stroke-width="2" stroke-linecap="round" stroke-linejoin="round"/>
    <path d="M87.5071 77.5565V85.9469" stroke="#A29EC0" stroke-width="2" stroke-linejoin="round"/>
    <path d="M99.8526 88.9384H90.5032" stroke="#A29EC0" stroke-width="2" stroke-linecap="round" stroke-linejoin="round"/>
    <path d="M40 59.4796V54.228C40 54.1091 40.0235 53.9915 40.0691 53.8817C40.1148 53.7719 40.1817 53.6722 40.2659 53.5884C40.3502 53.5046 40.4502 53.4382 40.5602 53.3931C40.6702 53.3481 40.7881 53.3252 40.9069 53.3258H60.5413" stroke="#A29EC0" stroke-width="2" stroke-miterlimit="10" stroke-linecap="round"/>
    <path d="M40 68.2926V62.9792C40 62.8603 40.0235 62.7426 40.0692 62.6328C40.1148 62.5231 40.1817 62.4234 40.2659 62.3396C40.3502 62.2557 40.4502 62.1894 40.5602 62.1443C40.6702 62.0993 40.7881 62.0764 40.9069 62.077H64.0789C64.3181 62.077 64.5476 62.1721 64.7167 62.3413C64.8859 62.5105 64.981 62.7399 64.981 62.9792V68.2926" stroke="#A29EC0" stroke-width="2" stroke-miterlimit="10" stroke-linecap="round"/>
    <path d="M64.0788 70.8281H40.9022C40.4039 70.8281 40 71.2321 40 71.7303V76.6543C40 77.1526 40.4039 77.5565 40.9022 77.5565H64.0788C64.5771 77.5565 64.981 77.1526 64.981 76.6543V71.7303C64.981 71.2321 64.5771 70.8281 64.0788 70.8281Z" stroke="#A29EC0" stroke-width="2" stroke-linejoin="round"/>
    <path d="M60.8168 66.2223C60.8178 66.2781 60.802 66.3328 60.7716 66.3796C60.7412 66.4264 60.6975 66.4631 60.6461 66.4849C60.5947 66.5067 60.538 66.5126 60.4832 66.5019C60.4285 66.4913 60.3781 66.4645 60.3386 66.4251C60.2992 66.3856 60.2724 66.3352 60.2618 66.2805C60.2511 66.2257 60.257 66.169 60.2788 66.1176C60.3006 66.0662 60.3373 66.0225 60.3841 65.9921C60.4309 65.9617 60.4856 65.9459 60.5414 65.9468C60.6145 65.9468 60.6845 65.9759 60.7362 66.0275C60.7878 66.0791 60.8168 66.1492 60.8168 66.2223Z" stroke="#A29EC0" stroke-width="2" stroke-linecap="round" stroke-linejoin="round"/>
    <path d="M60.8169 74.1948C60.8169 74.2504 60.8003 74.3047 60.7693 74.3509C60.7383 74.397 60.6943 74.4329 60.6428 74.454C60.5913 74.4751 60.5348 74.4803 60.4803 74.4691C60.4259 74.4579 60.3759 74.4308 60.3369 74.3911C60.2979 74.3514 60.2717 74.3011 60.2614 74.2464C60.2511 74.1918 60.2574 74.1353 60.2793 74.0842C60.3012 74.0331 60.3379 73.9897 60.3846 73.9595C60.4313 73.9293 60.4859 73.9136 60.5415 73.9146C60.5781 73.9146 60.6143 73.9219 60.648 73.936C60.6817 73.9502 60.7123 73.9709 60.7379 73.997C60.7636 74.023 60.7838 74.0539 60.7973 74.0879C60.8109 74.1219 60.8175 74.1582 60.8169 74.1948V74.1948Z" stroke="#A29EC0" stroke-width="2" stroke-linecap="round" stroke-linejoin="round"/>
    <path d="M79.53 53.3258H99.098C99.3372 53.3258 99.5667 53.4209 99.7359 53.5901C99.905 53.7593 100 53.9887 100 54.228V59.4512" stroke="#A29EC0" stroke-width="2" stroke-miterlimit="10" stroke-linecap="round"/>
    <path d="M75.019 68.2926V62.9792C75.019 62.8603 75.0426 62.7426 75.0882 62.6328C75.1338 62.5231 75.2007 62.4234 75.285 62.3396C75.3693 62.2557 75.4692 62.1894 75.5793 62.1443C75.6893 62.0993 75.8071 62.0764 75.926 62.077H99.0979C99.3372 62.077 99.5666 62.1721 99.7358 62.3413C99.905 62.5105 100 62.7399 100 62.9792V68.2926" stroke="#A29EC0" stroke-width="2" stroke-miterlimit="10" stroke-linecap="round"/>
    <path d="M99.0979 70.8281H75.9212C75.423 70.8281 75.019 71.2321 75.019 71.7303V76.6543C75.019 77.1526 75.423 77.5565 75.9212 77.5565H99.0979C99.5961 77.5565 100 77.1526 100 76.6543V71.7303C100 71.2321 99.5961 70.8281 99.0979 70.8281Z" stroke="#A29EC0" stroke-width="2" stroke-linejoin="round"/>
    <path d="M95.8357 66.5024C95.8269 66.5699 95.7939 66.6318 95.7427 66.6766C95.6916 66.7215 95.626 66.7462 95.558 66.7462C95.49 66.7462 95.4243 66.7215 95.3732 66.6766C95.3221 66.6318 95.289 66.5699 95.2802 66.5024C95.275 66.4629 95.2784 66.4228 95.2899 66.3846C95.3015 66.3465 95.3211 66.3112 95.3474 66.2813C95.3737 66.2513 95.4061 66.2273 95.4424 66.2108C95.4787 66.1944 95.5181 66.1859 95.558 66.1859C95.5978 66.1859 95.6372 66.1944 95.6735 66.2108C95.7099 66.2273 95.7422 66.2513 95.7685 66.2813C95.7948 66.3112 95.8145 66.3465 95.826 66.3846C95.8376 66.4228 95.8409 66.4629 95.8357 66.5024V66.5024Z" stroke="#A29EC0" stroke-width="2" stroke-linecap="round" stroke-linejoin="round"/>
    <path d="M95.8356 74.4701C95.8365 74.5259 95.8208 74.5807 95.7904 74.6275C95.76 74.6743 95.7163 74.711 95.6649 74.7328C95.6135 74.7545 95.5568 74.7605 95.502 74.7498C95.4473 74.7391 95.3969 74.7124 95.3574 74.6729C95.318 74.6335 95.2912 74.5831 95.2806 74.5283C95.2699 74.4735 95.2758 74.4168 95.2976 74.3654C95.3194 74.3141 95.3561 74.2704 95.4029 74.24C95.4496 74.2095 95.5044 74.1938 95.5602 74.1947C95.6333 74.1947 95.7033 74.2237 95.755 74.2754C95.8066 74.327 95.8356 74.3971 95.8356 74.4701V74.4701Z" stroke="#A29EC0" stroke-width="2" stroke-linecap="round" stroke-linejoin="round"/>
    <path d="M95.819 56.3334H44.0668C43.4755 56.3334 42.9961 56.8128 42.9961 57.4041C42.9961 57.9955 43.4755 58.4749 44.0668 58.4749H95.819C96.4103 58.4749 96.8897 57.9955 96.8897 57.4041C96.8897 56.8128 96.4103 56.3334 95.819 56.3334Z" fill="#B88DFC"/>
    <defs>
        <filter id="filter0_d" x="0" y="0" width="140" height="140" filterUnits="userSpaceOnUse" color-interpolation-filters="sRGB">
            <feFlood flood-opacity="0" result="BackgroundImageFix"/>
            <feColorMatrix in="SourceAlpha" type="matrix" values="0 0 0 0 0 0 0 0 0 0 0 0 0 0 0 0 0 0 127 0" result="hardAlpha"/>
            <feOffset dy="4"/>
            <feGaussianBlur stdDeviation="10"/>
            <feColorMatrix type="matrix" values="0 0 0 0 0.835294 0 0 0 0 0.843137 0 0 0 0 0.886275 0 0 0 1 0"/>
            <feBlend mode="normal" in2="BackgroundImageFix" result="effect1_dropShadow"/>
            <feBlend mode="normal" in="SourceGraphic" in2="effect1_dropShadow" result="shape"/>
        </filter>
    </defs>
</svg>

<svg xmlns="http://www.w3.org/2000/svg" width="100" height="100" viewBox="0 0 100 100"><defs><style>.a{fill:#fff;}.b,.c,.d{fill:none;stroke:#a29ec0;stroke-width:2px;}.b,.d{stroke-linecap:round;}.b,.c{stroke-linejoin:round;}.d{stroke-miterlimit:10;}.e{fill:#b88dfc;}</style></defs><circle class="a" cx="50" cy="50" r="50"/><path class="b" d="M50.44,50.94a7.15,7.15,0,0,1-1.83-4.78h0A7.17,7.17,0,0,1,55.77,39h9.65a7.15,7.15,0,0,1,7.16,7.16h0" transform="translate(-20 -16)"/><path class="b" d="M84.23,53.33H74.58a7.15,7.15,0,0,1-7.16-7.17" transform="translate(-20 -16)"/><path class="b" d="M74.58,39h9.65a7.17,7.17,0,0,1,7.16,7.16h0a7.13,7.13,0,0,1-1.63,4.55" transform="translate(-20 -16)"/><path class="b" d="M84.23,48.71A2.61,2.61,0,0,0,86.1,48a2.59,2.59,0,0,0,.79-1.84,2.49,2.49,0,0,0-.21-1,2.53,2.53,0,0,0-.58-.84,2.54,2.54,0,0,0-1.87-.7H77.82" transform="translate(-20 -16)"/><path class="b" d="M55.26,43.62a2.64,2.64,0,0,0-1,.16,2.53,2.53,0,0,0-1.44,1.38,2.49,2.49,0,0,0-.21,1,2.55,2.55,0,0,0,1.65,2.38,2.47,2.47,0,0,0,1,.17h6.42" transform="translate(-20 -16)"/><path class="c" d="M52.49,77.56V86" transform="translate(-20 -16)"/><path class="c" d="M55.48,86h-6v6h6Z" transform="translate(-20 -16)"/><path class="c" d="M90.5,86h-6v6h6Z" transform="translate(-20 -16)"/><path class="b" d="M49.5,88.94H40.15" transform="translate(-20 -16)"/><path class="b" d="M84.52,88.94h-29" transform="translate(-20 -16)"/><path class="c" d="M87.51,77.56V86" transform="translate(-20 -16)"/><path class="b" d="M99.85,88.94H90.5" transform="translate(-20 -16)"/><path class="d" d="M40,59.48V54.23a.84.84,0,0,1,.07-.35.72.72,0,0,1,.2-.29.84.84,0,0,1,.29-.2,1,1,0,0,1,.35-.06H60.54" transform="translate(-20 -16)"/><path class="d" d="M40,68.29V63a.84.84,0,0,1,.07-.35.72.72,0,0,1,.2-.29,1,1,0,0,1,.29-.2,1,1,0,0,1,.35-.06H64.08a.89.89,0,0,1,.9.9v5.31" transform="translate(-20 -16)"/><path class="c" d="M64.08,70.83H40.9a.9.9,0,0,0-.9.9v4.92a.9.9,0,0,0,.9.91H64.08a.9.9,0,0,0,.9-.91V71.73A.9.9,0,0,0,64.08,70.83Z" transform="translate(-20 -16)"/><path class="b" d="M60.82,66.22a.3.3,0,0,1,0,.16.23.23,0,0,1-.12.1.25.25,0,0,1-.17,0,.37.37,0,0,1-.14-.07.28.28,0,0,1-.08-.15.3.3,0,0,1,0-.16.32.32,0,0,1,.1-.13.31.31,0,0,1,.36,0A.27.27,0,0,1,60.82,66.22Z" transform="translate(-20 -16)"/><path class="b" d="M60.82,74.19a.3.3,0,0,1,0,.16.26.26,0,0,1-.13.1.23.23,0,0,1-.16,0,.31.31,0,0,1-.22-.22.33.33,0,0,1,0-.17.29.29,0,0,1,.1-.12.33.33,0,0,1,.16,0,.23.23,0,0,1,.11,0,.24.24,0,0,1,.09.06.35.35,0,0,1,.06.09.36.36,0,0,1,0,.1Z" transform="translate(-20 -16)"/><path class="d" d="M79.53,53.33H99.1a.9.9,0,0,1,.64.26.94.94,0,0,1,.26.64v5.22" transform="translate(-20 -16)"/><path class="d" d="M75,68.29V63a.84.84,0,0,1,.07-.35.72.72,0,0,1,.2-.29,1,1,0,0,1,.29-.2,1,1,0,0,1,.35-.06H99.1a.9.9,0,0,1,.64.26A.94.94,0,0,1,100,63v5.31" transform="translate(-20 -16)"/><path class="c" d="M99.1,70.83H75.92a.9.9,0,0,0-.9.9v4.92a.9.9,0,0,0,.9.91H99.1a.9.9,0,0,0,.9-.91V71.73A.9.9,0,0,0,99.1,70.83Z" transform="translate(-20 -16)"/><path class="b" d="M95.84,66.5a.32.32,0,0,1-.1.18.29.29,0,0,1-.18.07.32.32,0,0,1-.19-.07.31.31,0,0,1-.09-.18.49.49,0,0,1,0-.12.27.27,0,0,1,.06-.1.31.31,0,0,1,.09-.07.25.25,0,0,1,.12,0,.2.2,0,0,1,.11,0l.1.07.06.1a.49.49,0,0,1,0,.12Z" transform="translate(-20 -16)"/><path class="b" d="M95.84,74.47a.3.3,0,0,1,0,.16.27.27,0,0,1-.13.1.27.27,0,0,1-.36-.36.27.27,0,0,1,.1-.13.3.3,0,0,1,.16,0,.31.31,0,0,1,.28.28Z" transform="translate(-20 -16)"/><path class="e" d="M95.82,56.33H44.07a1.07,1.07,0,0,0,0,2.14H95.82a1.07,1.07,0,1,0,0-2.14Z" transform="translate(-20 -16)"/></svg>
